X:1
T:Speed the Plough -- Reel
R:reel
N:161
B:Ryan's Mammoth Collection
Z:Contributed by Ray Davies,  ray:davies99.freeserve.co.uk
M:2/4
L:1/16
K:A
uE2|\
ABcd efec | efec ((3ega)(ec) | dfdB cecA | ((3Bcd)(BA) GABG |
ABcd efec | efec ((3ega)(ec) | dfdB cecA | BAGB A2::
((3efg)|\
.a2{b}(ag) .a.e.c.e | .a2.g2.f2.e2  | dfdB cecA | ((3Bcd)(BA) GAfg |
.a2{b}(ag) .a.e.c.e | aAgA fAeA     | dfdB cecA | BAGB A2:|
